X: 11711
T: El Colomar
R: jig
M: 6/8
K: Bminor
|:BFA BFA|Bdc BAF|AEF ADE|Fec BAF|
BFA B2 d-|dcB cBA|Ggf dAf|1 ecA B3:|2 ecA Bfg||
ada gfA|gBg fed|GgG fed|Fcd efg|
a2a gfA|gBg fed|GBd g2f-|fed edB|d2e cAF|Adc B3||

